X:245
T:Aldbury May Tune
M:4/4
K:D
A2 AG F2 D2 | G2 F2 E4 | A2 A2 Bc d2 | A6 FG | 
ABAG F2 E2 | D2 D2 d3 B | ABAG F2 E2 | D8 || 

